icon_installer/data/icons/scalable/actions/show-video-decode-symbolic.svg

<?xml version="1.0" encoding="UTF-8"?>
<svg height="16px" viewBox="0 0 16 16" width="16px" xmlns="http://www.w3.org/2000/svg">
    <g fill="#222222">
        <path d="m 6 3 v 2 h 2 v -2 z m 2 2 v 2 h 2 v -2 z m 2 0 h 1 c 0 -0.742188 -0.402344 -1.386719 -1 -1.730469 z m 0 2 v 2 h -2 v -2 h -2 v 2 h -2 v -2 h -2 v -2 h -1 v 6 c 0 1.109375 0.890625 2 2 2 h 6 c 1.109375 0 2 -0.890625 2 -2 v -4 z m 0 0"/>
        <path d="m 11 8 l 3 -3 h 1 v 6 h -1 z m 0 0"/>
    </g>
</svg>

<svg xmlns="http://www.w3.org/2000/svg" width="16" height="16"><path fill="#222" d="M6 3v2h2V3zm2 2v2h2V5zm2 0h1a1.99 1.99 0 0 0-1-1.73zm0 2v2H8V7H6v2H4V7H2V5H1v6c0 1.11.89 2 2 2h6c1.11 0 2-.89 2-2V7zm1 1 3-3h1v6h-1zm0 0"/></svg>
